X: 555
T: Wilkinson's Hornpipe
%R: hornpipe, reel
B: "Twenty Four Country Dances for the Year 1805", Tho. Preston, ed. p.238 #1
F: http://folkopedia.efdss.org/images/archive/0/02/20121211105513%21Preston_24_1805.PDF
Z: 2014 John Chambers <jc:trillian.mit.edu>
M: C|
L: 1/8
K: A
ED |\
CEB,E CEA,E | CEAc ecAE | FAGA EAGA | FBdB AGFE |
CEB,E CEB,E | CEAc ecAE | Dfed caAf | edcB A2 :|
|: ed |\
ceAe ceAe | agfe dcBA | BABc dcde | fdBA AGFE |
FAEA DACA | B,BdB AGFE | Dfed cGAF | EDCB, A,2 :|
%%begintext align
%% Foot it and cast off 2 Cu. the same back again.
%% lead down the middle up again. swing corners.
%% and lead outsides.
%%endtext

%%sep 1 1 500
%%sep 1 1 500
